svgs/sharp-regular/forward-fast.svg

<svg xmlns="http://www.w3.org/2000/svg" viewBox="0 0 512 512"><!--! Font Awesome Pro 6.6.0 by @fontawesome - https://fontawesome.com License - https://fontawesome.com/license (Commercial License) Copyright 2024 Fonticons, Inc. --><path d="M448 64l0 24 0 134.1L272 97.9 224 64l0 58.8 0 99.4L48 97.9 0 64l0 58.8L0 389.2 0 448l48-33.9L224 289.9l0 99.4 0 58.8 48-33.9L448 289.9 448 424l0 24 48 0 0-24 0-168 0-168 0-24-48 0zM272 256l0-99.4L412.8 256 272 355.4l0-99.4zm-83.2 0L48 355.4l0-198.7L188.8 256z"/></svg>

<svg xmlns="http://www.w3.org/2000/svg" viewBox="0 0 512 512"><!--! Font Awesome Pro 6.5.2 by @fontawesome - https://fontawesome.com License - https://fontawesome.com/license (Commercial License) Copyright 2024 Fonticons, Inc. --><path d="M448 64V88 222.1L272 97.9 224 64v58.8 99.4L48 97.9 0 64v58.8V389.2 448l48-33.9L224 289.9v99.4V448l48-33.9L448 289.9V424v24h48V424 256 88 64H448zM272 256V156.6L412.8 256 272 355.4V256zm-83.2 0L48 355.4V156.6L188.8 256z"/></svg>
